24x24/apps/appimagekit-moonlight.svg

<svg xmlns="http://www.w3.org/2000/svg" width="24" height="24" version="1.0">
 <circle style="opacity:0.2" cx="11.5" cy="-12" r="10.5" transform="scale(1,-1)"/>
 <circle style="fill:#565c64" cx="11.5" cy="-11.5" r="10.5" transform="scale(1,-1)"/>
 <path style="opacity:0.2" d="M 12.025,3.6040997 V 10.732615 L 17.067871,5.6897443 16.956103,5.5974593 C 15.897738,4.7053735 14.651202,4.083981 13.331348,3.7917462 12.948624,3.7087573 12.329558,3.6227949 12.025,3.6040997 Z m -1.05,0.00205 c -0.03795,0.00154 -0.06724,0.00111 -0.10459,0.0041 C 9.079839,3.7579052 7.415026,4.4438977 6.0459472,5.5974568 L 5.9331541,5.6907696 10.975,10.732615 Z m 6.835254,2.8259772 -5.042871,5.0428711 h 7.124414 l -0.001,-0.02666 C 19.847676,10.445512 19.509368,9.2058037 19.007885,8.2029771 18.727916,7.6431166 18.211209,6.8802207 17.817407,6.4403305 Z M 5.1907715,6.4331769 5.09541,6.5480206 C 4.3539536,7.4247255 3.8280742,8.3783481 3.4773437,9.4796128 3.2835191,10.082539 3.135892,10.888502 3.1112793,11.448362 l -0.00103,0.02664 H 10.232617 Z M 3.1123047,12.524998 c 0.00742,0.189658 0.038094,0.526094 0.085107,0.815185 0.2338203,1.495012 0.8950321,2.928522 1.8979979,4.115918 l 0.093311,0.112794 5.0438961,-5.043897 z m 9.6550783,0 5.044922,5.044922 0.09434,-0.113819 c 0.741456,-0.876704 1.267335,-1.830327 1.618066,-2.931591 0.193824,-0.602927 0.341451,-1.40889 0.366065,-1.96875 l 0.001,-0.03076 z m -1.792383,0.742383 -5.0438965,5.043896 0.1148437,0.09536 c 0.8768267,0.741353 1.8312008,1.267384 2.9326178,1.618066 0.60301,0.193797 1.408812,0.341455 1.96875,0.366065 l 0.02768,10e-4 z m 1.05,0 v 7.124414 l 0.02974,-10e-4 c 0.559938,-0.02461 1.36574,-0.172267 1.96875,-0.366065 1.101417,-0.350682 2.055791,-0.876713 2.932617,-1.618066 l 0.113818,-0.09434 z"/>
 <path style="fill:#f4f4f7" d="M 12.025,3.1041012 V 10.232617 L 17.067871,5.1897458 16.956103,5.0974608 C 15.897738,4.205375 14.651202,3.5839825 13.331348,3.2917477 12.948624,3.2087588 12.329558,3.1227964 12.025,3.1041012 Z m -1.05,0.00205 c -0.03795,0.00154 -0.06724,0.00111 -0.10459,0.0041 C 9.079839,3.2579067 7.415026,3.9438992 6.0459472,5.0974583 L 5.9331541,5.1907711 10.975,10.232617 Z M 17.810254,5.9321284 12.767383,10.975 h 7.124414 l -0.001,-0.02666 C 19.847676,9.9455135 19.509368,8.7058052 19.007885,7.7029786 18.727916,7.1431181 18.211209,6.3802222 17.817407,5.940332 Z M 5.1907715,5.9331784 5.09541,6.0480221 C 4.3539536,6.924727 3.8280742,7.8783496 3.4773437,8.9796143 3.2835191,9.5825405 3.135892,10.388504 3.1112793,10.948364 L 3.1102539,10.975 H 10.232617 Z M 3.1123047,12.025 c 0.00742,0.189658 0.038094,0.526094 0.085107,0.815185 0.2338203,1.495012 0.8950321,2.928522 1.8979979,4.115918 L 5.1887209,17.068897 10.232617,12.025 Z m 9.6550783,0 5.044922,5.044922 0.09434,-0.113819 c 0.741456,-0.876704 1.267335,-1.830327 1.618066,-2.931591 0.193824,-0.602927 0.341451,-1.40889 0.366065,-1.96875 l 0.001,-0.03076 z m -1.792383,0.742383 -5.0438965,5.043896 0.1148437,0.09536 c 0.8768267,0.741353 1.8312008,1.267384 2.9326178,1.618066 0.60301,0.193797 1.408812,0.341455 1.96875,0.366065 l 0.02768,0.001 z m 1.05,0 v 7.124414 l 0.02974,-0.001 c 0.559938,-0.02461 1.36574,-0.172267 1.96875,-0.366065 1.101417,-0.350682 2.055791,-0.876713 2.932617,-1.618066 l 0.113818,-0.09434 z"/>
 <path style="fill:#f4f4f7;opacity:0.1" d="M 11.5 1 A 10.5 10.5 0 0 0 1 11.5 A 10.5 10.5 0 0 0 1.0097656 11.703125 A 10.5 10.5 0 0 1 11.5 1.5 A 10.5 10.5 0 0 1 21.990234 11.796875 A 10.5 10.5 0 0 0 22 11.5 A 10.5 10.5 0 0 0 11.5 1 z"/>
</svg>

<svg xmlns="http://www.w3.org/2000/svg" width="24" height="24" version="1.0"><circle style="opacity:.2" cx="11.5" cy="-12" r="10.5" transform="scale(1 -1)"/><circle style="fill:#565c64" cx="11.5" cy="-11.5" r="10.5" transform="scale(1 -1)"/><path style="opacity:.2" d="M12.025 3.604v7.129l5.043-5.043-.112-.093a8.487 8.487 0 0 0-3.625-1.805 11.036 11.036 0 0 0-1.306-.188zm-1.05.002c-.038.002-.067.001-.105.004a8.525 8.525 0 0 0-4.824 1.987l-.113.094 5.042 5.042zm6.835 2.826-5.043 5.043h7.125l-.001-.027c-.043-1.002-.382-2.242-.883-3.245a9.368 9.368 0 0 0-1.19-1.763zm-12.62.001-.095.115A8.379 8.379 0 0 0 3.477 9.48a8.457 8.457 0 0 0-.366 1.968v.027h7.122zm-2.078 6.092c.008.19.038.526.085.815a8.432 8.432 0 0 0 1.898 4.116l.094.113 5.044-5.044zm9.655 0 5.045 5.045.095-.114a8.379 8.379 0 0 0 1.618-2.931 8.457 8.457 0 0 0 .366-1.97v-.03zm-1.792.742-5.044 5.044.115.096a8.384 8.384 0 0 0 2.933 1.618 8.459 8.459 0 0 0 1.968.366h.028zm1.05 0v7.125l.03-.001a8.459 8.459 0 0 0 1.968-.366 8.384 8.384 0 0 0 2.933-1.618l.114-.095z"/><path style="fill:#f4f4f7" d="M12.025 3.104v7.129l5.043-5.043-.112-.093a8.487 8.487 0 0 0-3.625-1.805 11.036 11.036 0 0 0-1.306-.188zm-1.05.002c-.038.002-.067.001-.105.004a8.525 8.525 0 0 0-4.824 1.987l-.113.094 5.042 5.042zm6.835 2.826-5.043 5.043h7.125l-.001-.027c-.043-1.002-.382-2.242-.883-3.245a9.368 9.368 0 0 0-1.19-1.763zm-12.62.001-.095.115A8.379 8.379 0 0 0 3.477 8.98a8.457 8.457 0 0 0-.366 1.968v.027h7.122zm-2.078 6.092c.008.19.038.526.085.815a8.432 8.432 0 0 0 1.898 4.116l.094.113 5.044-5.044zm9.655 0 5.045 5.045.095-.114a8.379 8.379 0 0 0 1.618-2.931 8.457 8.457 0 0 0 .366-1.97v-.03zm-1.792.742-5.044 5.044.115.096a8.384 8.384 0 0 0 2.933 1.618 8.459 8.459 0 0 0 1.968.366h.028zm1.05 0v7.125l.03-.001a8.459 8.459 0 0 0 1.968-.366 8.384 8.384 0 0 0 2.933-1.618l.114-.095z"/><path style="fill:#f4f4f7;opacity:.1" d="M11.5 1A10.5 10.5 0 0 0 1 11.5a10.5 10.5 0 0 0 .01.203A10.5 10.5 0 0 1 11.5 1.5a10.5 10.5 0 0 1 10.49 10.297A10.5 10.5 0 0 0 22 11.5 10.5 10.5 0 0 0 11.5 1z"/></svg>
